dist/img/svg/its.svg

<svg width="118" height="14" viewBox="0 0 118 14" fill="none" xmlns="http://www.w3.org/2000/svg">
<path d="M0.435547 0.450195H2.20915V12.8758H0.435547V0.450195Z" fill="currentColor" stroke="currentColor" stroke-width="0.870968"/>
<path d="M9.77758 2.32755H4.99805V0.450195H17.194V2.32755H12.4504H12.0424V2.73547V12.8759H10.1855V2.73547V2.32755H9.77758Z" fill="currentColor" stroke="currentColor" stroke-width="0.870968"/>
<path d="M31.3964 2.68803V0.0419922H22.6525C19.9417 0.0419922 18.9005 1.61773 18.9004 4.16161C18.9004 6.70557 20.3956 7.89662 22.6525 7.89662H26.8976L28.2599 7.89605C29.3061 7.89605 29.3364 8.92883 29.3364 9.54854C29.3364 10.1683 29.0961 10.8336 28.2543 10.8336H19.2362V13.2836H28.2543C30.5111 13.2836 32.0063 12.0925 32.0063 9.54854C32.0063 7.00458 30.9683 5.44803 28.2576 5.44803L26.8976 5.44672H22.6525C21.8105 5.44672 21.5703 4.7814 21.5703 4.16161C21.5703 3.54189 21.5703 2.68803 22.6166 2.68803H31.3964Z" fill="currentColor"/>
<path d="M54.4759 0.443359V2.33539H45.6572C45.2803 2.33539 44.9555 2.35554 44.6842 2.41648C44.4084 2.47841 44.1611 2.58838 43.9691 2.78696C43.7776 2.98513 43.6795 3.23192 43.627 3.49454C43.5753 3.75243 43.5621 4.05437 43.5621 4.39058V9.27552C43.5621 9.86383 43.7197 10.377 44.113 10.7348C44.4985 11.0857 45.0386 11.2206 45.6572 11.2206H52.2547H52.6626V10.8127V7.89675V7.48883H52.2547H49.7091V5.84637H54.4687V12.8762H45.3571C43.5267 12.8762 42.6462 12.5407 42.2047 12.0941C41.7687 11.6529 41.6621 11.0064 41.6621 10.0736V3.54406C41.6621 2.39951 41.7905 1.6801 42.2378 1.21729C42.6863 0.753355 43.5599 0.443359 45.3571 0.443359H54.4759Z" fill="currentColor" stroke="currentColor" stroke-width="0.870968"/>
<path d="M59.277 8.93903V12.8765H57.502V0.464844H66.0114C67.5633 0.464844 68.467 0.928969 68.9816 1.4398C69.5062 1.96064 69.6619 2.56371 69.6619 2.89241V6.40837C69.6619 6.8136 69.5168 7.32945 69.0592 7.74733C68.601 8.16586 67.7796 8.53111 66.341 8.53111H65.4533L66.0313 9.20467L69.1823 12.8765H67.8654H66.7897L63.3321 8.67967L63.1929 8.51071L62.9752 8.53331C62.9357 8.53739 62.8326 8.53837 62.6768 8.53649C62.6319 8.53592 62.5838 8.53519 62.5346 8.53446C62.4294 8.53282 62.3191 8.53111 62.2241 8.53111H59.6849H59.277V8.93903ZM59.6849 2.04499H59.277V2.45291V6.66356V7.07148H59.6849H66.0114C66.813 7.07148 67.3222 6.8043 67.5951 6.36692C67.8346 5.98315 67.834 5.54512 67.8338 5.33366C67.8338 5.32689 67.8338 5.32036 67.8338 5.31408V3.55871C67.8338 3.55536 67.8338 3.55177 67.8338 3.54802C67.834 3.40174 67.8344 3.01177 67.5783 2.66144C67.2988 2.27881 66.7973 2.04499 66.0114 2.04499H59.6849Z" fill="currentColor" stroke="currentColor" stroke-width="0.870968"/>
<path d="M76.4307 0.464844H81.568C83.5448 0.464844 85.2842 2.06343 85.2842 3.98539V9.50539C85.2842 11.4117 83.562 12.9065 81.568 12.9065H76.4307C74.4321 12.9065 72.6855 11.4083 72.6855 9.50539V3.98539C72.6855 2.06694 74.4493 0.464844 76.4307 0.464844ZM81.568 11.3702C82.1546 11.3702 82.6474 11.0418 82.9786 10.6303C83.3099 10.2183 83.5203 9.6759 83.5203 9.14699V4.34388C83.5203 3.81782 83.3123 3.25701 82.986 2.82575C82.6621 2.3976 82.1685 2.03161 81.568 2.03161H76.4307C75.8327 2.03161 75.3391 2.39817 75.0152 2.82527C74.6886 3.25587 74.4778 3.81676 74.4778 4.34388V9.14699C74.4778 9.67704 74.6908 10.2194 75.0228 10.6308C75.3539 11.0411 75.8465 11.3702 76.4307 11.3702H81.568Z" fill="currentColor" stroke="currentColor" stroke-width="0.870968"/>
<path d="M99.2773 8.61983V0.464655H101.141V9.49882C101.141 11.3596 99.6126 12.8763 97.7125 12.8763H91.7348C89.8355 12.8763 88.3066 11.3596 88.3066 9.49882V0.458984L90.1333 0.463618V8.6266C90.1333 9.5583 90.3095 10.256 90.8064 10.6949C91.2902 11.1225 91.9788 11.2101 92.7334 11.2101H96.8934C97.6529 11.2101 98.2975 11.0772 98.729 10.6077C99.1516 10.1489 99.2773 9.46545 99.2773 8.61983Z" fill="currentColor" stroke="currentColor" stroke-width="0.870968"/>
<path d="M107.01 6.43652C107.01 6.56412 107.017 6.68462 107.038 6.80512H107.01V6.43652Z" fill="currentColor"/>
<path d="M107.038 2.43848C107.017 2.55898 107.01 2.67948 107.01 2.80707V2.43848H107.038Z" fill="currentColor"/>
<path d="M107.01 6.43652C107.01 6.56412 107.017 6.68462 107.038 6.80512H107.01V6.43652Z" fill="currentColor"/>
<path d="M107.038 2.43848C107.017 2.55898 107.01 2.67948 107.01 2.80707V2.43848H107.038Z" fill="currentColor"/>
<path d="M106.395 8.80667H105.987V9.21459V12.8755H104.166V0.435547H112.991C115.356 0.435547 116.441 1.88073 116.441 3.16079V6.21604C116.441 7.45759 115.133 8.80667 112.991 8.80667H106.395ZM105.987 6.80443V7.21235H106.395H112.991C114.023 7.21235 114.864 6.38981 114.864 5.35834V3.88387C114.864 2.8524 114.023 2.02987 112.991 2.02987H106.395H105.987V2.43779V6.80443Z" fill="currentColor" stroke="currentColor" stroke-width="0.870968"/>
</svg>

<svg width="118" height="14" viewBox="0 0 118 14" fill="none" xmlns="http://www.w3.org/2000/svg"><path d="M.436.45h1.773v12.426H.436V.45zm9.342 1.878h-4.78V.45h12.196v1.878h-5.152v10.547h-1.857V2.329h-.407z" fill="currentColor" stroke="currentColor" stroke-width=".871"/><path d="M31.396 2.688V.042h-8.744c-2.71 0-3.752 1.576-3.752 4.12s1.496 3.735 3.753 3.735h4.245l1.362-.001c1.046 0 1.076 1.033 1.076 1.653 0 .62-.24 1.285-1.082 1.285h-9.018v2.45h9.018c2.257 0 3.752-1.192 3.752-3.735 0-2.544-1.038-4.101-3.748-4.101l-1.36-.001h-4.245c-.842 0-1.083-.666-1.083-1.285 0-.62 0-1.474 1.047-1.474h8.78z" fill="currentColor"/><path d="M54.476.443v1.892h-8.819c-.377 0-.701.02-.973.081-.276.062-.523.172-.715.371-.191.198-.29.445-.342.708-.052.257-.065.56-.065.896v4.885c0 .588.158 1.101.551 1.459.386.35.926.486 1.544.486h7.006V7.489h-2.954V5.846h4.76v7.03h-9.112c-1.83 0-2.71-.335-3.152-.782-.436-.441-.543-1.088-.543-2.02v-6.53c0-1.144.129-1.864.576-2.327.448-.464 1.322-.774 3.12-.774h9.118zm4.801 8.496v3.938h-1.775V.464h8.51c1.551 0 2.455.464 2.97.975.524.52.68 1.124.68 1.452v3.516c0 .406-.145.921-.603 1.34-.458.418-1.28.783-2.718.783h-.888l.578.674 3.151 3.671H66.79L63.332 8.68l-.14-.17-.217.023a3.78 3.78 0 01-.298.003c-.045 0-.093 0-.142-.002a20.996 20.996 0 00-.31-.003h-2.948v.408zm.408-6.894h-.408v5.026h6.734c.802 0 1.311-.267 1.584-.704.24-.384.239-.822.239-1.033V3.548c0-.146 0-.536-.256-.887-.28-.382-.78-.616-1.567-.616h-6.326zM76.43.465h5.138c1.977 0 3.716 1.598 3.716 3.52v5.52c0 1.907-1.722 3.401-3.716 3.401h-5.137c-1.999 0-3.745-1.498-3.745-3.4v-5.52c0-1.92 1.763-3.521 3.745-3.521zm5.138 10.905c.587 0 1.08-.328 1.41-.74.332-.412.542-.954.542-1.483V4.344c0-.526-.208-1.087-.534-1.518-.324-.428-.818-.794-1.418-.794h-5.137c-.598 0-1.092.366-1.416.793-.326.43-.537.992-.537 1.519v4.803c0 .53.213 1.072.545 1.484.33.41.824.74 1.408.74h5.137zm17.709-2.75V.465h1.864v9.034c0 1.86-1.528 3.377-3.428 3.377h-5.978c-1.9 0-3.428-1.516-3.428-3.377V.459l1.826.005v8.163c0 .931.177 1.629.673 2.068.484.428 1.173.515 1.927.515h4.16c.76 0 1.404-.133 1.836-.602.423-.46.548-1.143.548-1.988z" fill="currentColor" stroke="currentColor" stroke-width=".871"/><path d="M107.01 6.437c0 .127.007.248.028.368h-.028v-.368zm.028-3.999a2.134 2.134 0 00-.028.37v-.37h.028z" fill="currentColor"/><path d="M107.01 6.437c0 .127.007.248.028.368h-.028v-.368zm.028-3.999a2.134 2.134 0 00-.028.37v-.37h.028z" fill="currentColor"/><path d="M106.395 8.807h-.408v4.068h-1.821V.436h8.825c2.365 0 3.45 1.446 3.45 2.726v3.055c0 1.242-1.308 2.59-3.45 2.59h-6.596zm-.408-2.003v.408h7.004a1.86 1.86 0 001.873-1.854V3.884a1.86 1.86 0 00-1.873-1.854h-7.004v4.774z" fill="currentColor" stroke="currentColor" stroke-width=".871"/></svg>
